X: 27358
T: Mistwold
R: polka
M: 2/4
K: Gmajor
|:D|GA Bc|d2 Bd|c2 Ac|BA/G/ AD|
G>A Bc|d2 Bd|cA GF|1 G3:|2 GA Bc||
|:d2 Bd|c>B Ac|B2 GB|AF/E/ DD|
E2 F2|G2 Ac|BG AF|1 G>A Bc:|2 G3||

